flaticon/productivity-and-development/tag.svg

<svg xmlns="http://www.w3.org/2000/svg" width="32" height="32" viewBox="0 0 24 24">
    <path d="M 17.460938 11.621094 L 12.386719 6.546875 L 13.105469 5.824219 L 18.179688 10.898438 Z M 14.738281 14.339844 L 9.664062 9.265625 L 10.386719 8.542969 L 15.460938 13.617188 Z M 12.019531 17.058594 L 6.945312 11.984375 L 7.667969 11.261719 L 12.742188 16.335938 Z M 9.300781 19.78125 L 4.226562 14.703125 L 4.949219 13.984375 L 10.023438 19.058594 Z M 9.300781 19.78125"/>
    <path d="M 23.386719 0.621094 C 22.992188 0.222656 22.460938 0.00390625 21.894531 0.00390625 L 15.023438 0.0273438 C 14.464844 0.0273438 13.941406 0.246094 13.546875 0.640625 L 0.617188 13.570312 C -0.546875 14.835938 0.222656 16.140625 0.617188 16.539062 L 7.46875 23.386719 C 8.742188 24.53125 10.039062 23.78125 10.4375 23.386719 L 23.363281 10.457031 C 23.757812 10.0625 23.976562 9.539062 23.980469 8.980469 L 24 2.109375 C 24 1.546875 23.785156 1.019531 23.386719 0.621094 Z M 22.957031 8.976562 C 22.957031 9.265625 22.84375 9.535156 22.640625 9.738281 L 9.714844 22.664062 C 9.308594 23.070312 8.597656 23.070312 8.1875 22.664062 L 1.339844 15.816406 C 1.136719 15.613281 0.742188 14.894531 1.339844 14.289062 L 14.269531 1.363281 C 14.472656 1.160156 14.742188 1.046875 15.027344 1.046875 L 21.902344 1.027344 C 22.1875 1.027344 22.460938 1.136719 22.664062 1.34375 C 22.867188 1.546875 22.980469 1.820312 22.980469 2.109375 Z M 22.957031 8.976562"/>
    <path d="M 19.332031 2.679688 C 18.230469 2.679688 17.339844 3.570312 17.339844 4.671875 C 17.339844 5.773438 18.230469 6.664062 19.332031 6.664062 C 20.433594 6.664062 21.328125 5.773438 21.328125 4.671875 C 21.328125 3.570312 20.433594 2.679688 19.332031 2.679688 Z M 19.332031 5.664062 C 18.785156 5.664062 18.339844 5.21875 18.339844 4.671875 C 18.339844 4.125 18.785156 3.679688 19.332031 3.679688 C 19.882812 3.679688 20.324219 4.125 20.324219 4.671875 C 20.324219 5.21875 19.882812 5.664062 19.332031 5.664062 Z M 19.332031 5.664062"/>
</svg>

<svg xmlns="http://www.w3.org/2000/svg" width="32" height="32" viewBox="0 0 24 24">
    <path d="M17.46 11.621l-5.073-5.074.718-.723 5.075 5.074zm-2.722 2.719L9.664 9.266l.723-.723 5.074 5.074zm-2.718 2.719l-5.075-5.075.723-.722 5.074 5.074zM9.3 19.78l-5.073-5.078.722-.719 5.074 5.075zm0 0"/>
    <path d="M23.387.621a2.085 2.085 0 0 0-1.492-.617l-6.872.023c-.558 0-1.082.22-1.476.614L.617 13.57c-1.164 1.265-.394 2.57 0 2.968l6.852 6.848c1.273 1.144 2.57.394 2.968 0l12.926-12.93c.395-.395.614-.918.617-1.477L24 2.11c0-.563-.215-1.09-.613-1.489zm-.43 8.356c0 .289-.113.558-.316.761L9.715 22.664c-.406.406-1.117.406-1.527 0L1.34 15.816c-.203-.203-.598-.921 0-1.527L14.27 1.363c.203-.203.472-.316.757-.316l6.875-.02A1.079 1.079 0 0 1 22.98 2.11zm0 0"/>
    <path d="M19.332 2.68a1.99 1.99 0 0 0-1.992 1.992 1.994 1.994 0 1 0 3.988 0 1.994 1.994 0 0 0-1.996-1.992zm0 2.984a.994.994 0 0 1-.992-.992.991.991 0 1 1 .992.992zm0 0"/>
</svg>
